!!!COM: Beethoven
!!!OTL: 24 Variationen uber Venni Amore von V. Righini
!!!Variation: Theme b
**function	**harm	**kern	**kern
*	*	*clefF4	*clefG2
*	*	*k[f#c#]	*k[f#c#]
*M2/4	*M2/4	*M2/4	*M2/4
*D:	*D:	*D:	*D:
=9	=9	=9	=9
*	*	*	*^
2D	V7	2AA 2G	2c#	8e
.	.	.	.	r
.	.	.	.	8a
.	.	.	.	r
=10	=10	=10	=10	=10
2D	Ic	2AA 2F#	2d	8f#
.	.	.	.	r
.	.	.	.	8dd
.	.	.	.	r
*	*	*	*v	*v
=11	=11	=11	=11
2D	V7	2AA 2C# 2G	8ee
.	.	.	r
.	.	.	8a
.	.	.	r
=12	=12	=12	=12
2D	Ic	2AA 2D 2F#	8dd
.	.	.	r
.	.	.	8d
.	.	.	r
=13	=13	=13	=13
*	*	*	*^
2D	V7	2AA 2G	2c#	8e
.	.	.	.	r
.	.	.	.	8a
.	.	.	.	r
=14	=14	=14	=14	=14
2D	Ic	2AA 2F#	2d	8f#
.	.	.	.	r
.	.	.	.	8dd
.	.	.	.	r
=15	=15	=15	=15	=15
*	*	*^	*	*
*	*	*	*	*^	*
2D	V7	2AA	4A	4d	2e	4a
.	.	.	4G	4c#	.	16g#LL
.	.	.	.	.	.	16a
.	.	.	.	.	.	16b
.	.	.	.	.	.	16aJJ
*	*	*	*	*v	*v	*
*	*	*	*	*v	*v
=16	=16	=16	=16	=16
2T	I	4D	4F#	4d
*	*	*v	*v	*
.	.	r	r
*-	*-	*-	*-
